!!!!SEGMENT: pl-wn--sd-xvi-o-281_anonim--kancjonal-zamoyskich-psalm-xxxvi-noli-aemulari-zaniechaj-towarzystwa.krn
!!!cenid: 15xx:836
!!!COM: Anonim
!!!COM-rismID: pe30004985
!!!CDT:
!!!CNT:
!!!GTL: Kancjonał Zamoyskich
!!!OTL: Psalm XXXVI Noli aemulari/Zaniechaj towarzystwa
!!!PDT: 1558
!!!AGN:
!!!SMS-siglum: PL-Wn
!!!SMS-shelfmark: SD XVI.O.281
!!!SMS-shelfwork: G
!!!SMS-variant:
!!!SMS-altvar:
!!!NIFC-rismSourceID: 990072216
!!!NIFC-rismChildID: 990072216
!!!NIFC-islandoraID: none
!!!URL-pdf-islandora:
!!!URL-scan: https://polona.pl/item/psalm-xxxvi-noli-aemulari-in-malignantibus-necq-ue-zelaueris-fecientes-iniquitatem-ku,MTE3MTY4Mw/3 @EN{Scan on Polona} @PL{Skany w portalu Polona}
!!!IIIF: https://polona.pl/iiif/item/MTE3MTY4Mw/manifest.json
!!!ONB-nifc: UWAGA: proszę zapisywać tylko teksty występujące bezpośrednio pod nutami
!!!AIN: 1 alto 1 bass 1 soprn 1 tenor
!!!key: F
**kern	**text	**mod-text	**kern	**text	**mod-text	**kern	**text	**mod-text	**kern	**text	**mod-text
*part4	*part4	*	*part3yy	*part3	*	*part2	*part2	*	*part1	*part1	*
*staff4	*staff4	*	*staff3	*staff3	*	*staff2	*staff2	*	*staff1	*staff1	*
*ICvox	*	*	*ICvox	*	*	*ICvox	*	*	*ICvox	*	*
*Ibass	*	*	*Itenor	*	*	*Ialto	*	*	*Isoprn	*	*
*I"BAS.	*	*	*I"TENOR	*	*	*I"ALT.	*	*	*I"CANTVS.	*	*
*mI"Basso	*	*	*mI"Tenore	*	*	*mI"Alto	*	*	*mI"Soprano	*	*
*I'B	*	*	*I'T	*	*	*I'A	*	*	*I'S	*	*
*clefC4	*	*	*clefC3	*	*	*clefC2	*	*	*clefG2	*	*
*mclefF4	*	*	*mclefGv2	*	*	*mclefG2	*	*	*	*	*
*k[b-]	*	*	*k[b-]	*	*	*k[b-]	*	*	*k[b-]	*	*
*F:	*	*	*F:	*	*	*F:	*	*	*F:	*	*
*M2/1	*	*	*M2/1	*	*	*M2/1	*	*	*M2/1	*	*
*met(C|)	*	*	*met(C|)	*	*	*met(C|)	*	*	*met(C|)	*	*
*mmet(c|)	*	*	*mmet(c|)	*	*	*mmet(c|)	*	*	*mmet(c|)	*	*
=1-	=1-	=1-	=1-	=1-	=1-	=1-	=1-	=1-	=1-	=1-	=1-
*xywh-#6:2834,290,2186,952	*	*	*xywh-#6:789,391,1953,831	*	*	*xywh-#7:618,378,2064,816	*	*	*xywh-#5:2765,292,2262,933	*	*
!	!	!	!	!	!	!LO:TX:t=P:problem:błędnie wpisany klucz	!	!	!	!	!
1F	Zá-	Za-	1A	Zá-	Za-	1c	Zá-	Za-	1a	Zá-	Za-
1C	-nie-	-nie-	1c	-nie-	-nie-	1e	-nie-	-nie-	1g	-nie-	-nie-
=2-	=2-	=2-	=2-	=2-	=2-	=2-	=2-	=2-	=2-	=2-	=2-
2.G/	-chay	-chaj	2B-/	-chay	-chaj	2d/	-chay	-chaj	2g/	-chay	-chaj
.	.	.	1d\	To-	to-	1g\	To-	to-	1b-\	To-	to-
4A/	To-	.	.	.	.	.	.	.	.	.	.
2B-\	-wá-	to-	.	.	.	.	.	.	.	.	.
2F/	-rzy-	-wa-	2c/	-wá-	-wa-	2f\	wá-	-wa-	1a/	-wá-	-wa-
=3-	=3-	=3-	=3-	=3-	=3-	=3-	=3-	=3-	=3-	=3-	=3-
1G	-ſstwá.	-rzys-	1B-	-rzy-	-rzys-	1d	-rzy-	-rzys-	.	.	-rzys-
.	.	.	.	.	.	.	.	.	2g/	-rzy-	.
!LO:SIC:v:s=2A\	!	!	!	!	!	!	!	!	!	!	!
2B-\	.	-stwa	2A/	-ſstwá.	-stwa	2e/	ſstwá.	-stwa	2a/	-ſstwá.	-stwa
2c\	.	z ludź-	2e\	.	z ludź-	2c/	.	z ludź-	2a/	.	z ludź-
=4-	=4-	=4-	=4-	=4-	=4-	=4-	=4-	=4-	=4-	=4-	=4-
1B-	.	-mi	1f	.	-mi	1d	.	-mi	1dd	.	-mi
2c\	.	zło-	2e\	.	zło-	2g\	.	zło-	2cc\	.	zło-
2F/	.	-ści-	2c/	.	-ści-	2.f\	.	-ści-	1a/	.	-ści-
=5-	=5-	=5-	=5-	=5-	=5-	=5-	=5-	=5-	=5-	=5-	=5-
1B-	.	-we-	1d	.	-we-	.	.	.	.	.	.
.	.	.	.	.	.	4e/	.	.	.	.	.
.	.	.	.	.	.	2d/	.	-we-	2g/	.	-we-
1A	.	-mi,	1e	.	-mi,	1c	.	-mi,	1a	.	-mi,
=6-	=6-	=6-	=6-	=6-	=6-	=6-	=6-	=6-	=6-	=6-	=6-
!	!	!	!	!	!	!LO:SIC:v:t=custos cc	!	!	!	!	!
1A	.	A	1e	.	A	2c/	.	A	1cc	.	A
*	*	*	*	*	*	*xywh-#7:706,1171,2000,513	*	*	*	*	*
!	!	!	!	!	!	!LO:LB:g=original	!	!	!	!	!
.	.	.	.	.	.	1cc\	.	.	.	.	.
!LO:SIC:v:t=custos f	!	!	!	!	!	!	!	!	!LO:SIC:v:t=custos a	!	!
1B-	.	nie	1d	.	nie	.	.	.	1g	.	nie
.	.	.	.	.	.	2b-\	.	nie	.	.	.
=7-	=7-	=7-	=7-	=7-	=7-	=7-	=7-	=7-	=7-	=7-	=7-
*xywh-#6:2834,1180,1948,471	*	*	*	*	*	*	*	*	*xywh-#5:2765,1178,1854,443	*	*
!LO:LB:g=original	!	!	!	!	!	!	!	!	!LO:LB:g=original	!	!
2.F/	.	ob-	1f	.	ob-	1a	.	ob-	2.a/	.	ob-
4G/	.	.	.	.	.	.	.	.	4b-/	.	.
!	!	!	!LO:SIC:v:t=custos d	!	!	!	!	!	!	!	!
2A/	.	-cuj	2e\	.	-cuj	2a\	.	-cuj	2cc\	.	-cuj
*	*	*	*xywh-#6:775,1178,1982,442	*	*	*	*	*	*	*	*
!	!	!	!LO:LB:g=original	!	!	!	!	!	!	!	!
2B-\	.	z o-	2d\	.	z o-	2g\	.	z o-	1dd\	.	z o-
=8-	=8-	=8-	=8-	=8-	=8-	=8-	=8-	=8-	=8-	=8-	=8-
1A	.	-we-	1e	.	-we-	1a	.	-we-	.	.	.
!	!	!	!	!	!	!	!	!	!LO:SIC:s=2cc#	!	!
.	.	.	.	.	.	.	.	.	2cc\	.	-we-
1D	.	-mi	1d	.	-mi	1f	.	-mi	2dd\	.	-mi
.	.	.	.	.	.	.	.	.	2ff\	.	.
=9-	=9-	=9-	=9-	=9-	=9-	=9-	=9-	=9-	=9-	=9-	=9-
4D/	.	na-	1f	.	na-	1a	.	na-	1dd	.	na-
4E/	.	.	.	.	.	.	.	.	.	.	.
4F/	.	.	.	.	.	.	.	.	.	.	.
4G/	.	.	.	.	.	.	.	.	.	.	.
2A/	.	-zbyt	2e\	.	-zbyt	2a\	.	-zbyt	2cc\	.	-zbyt
2B-\	.	wsze-	1d\	.	wsze-	2f\	.	wsze-	1b-\	.	wsze-
=10-	=10-	=10-	=10-	=10-	=10-	=10-	=10-	=10-	=10-	=10-	=10-
1F	.	-tecz-	.	.	.	1f	.	-tecz-	.	.	.
.	.	.	2c/	.	-tecz-	.	.	.	1a/	.	-tecz-
1G	.	-ne-	1B-	.	-ne-	1d	.	-ne-	.	.	.
.	.	.	.	.	.	.	.	.	2g/	.	-ne-
=11-	=11-	=11-	=11-	=11-	=11-	=11-	=11-	=11-	=11-	=11-	=11-
1D	.	-mi,	1A	.	-mi,	1d	.	-mi,	1a	.	-mi,
2r	.	.	2r	.	.	2r	.	.	2r	.	.
2D/	.	Któ-	2d\	.	Któ-	2d/	.	Któ-	2f/	.	Któ-
=12-	=12-	=12-	=12-	=12-	=12-	=12-	=12-	=12-	=12-	=12-	=12-
!LO:SIC:v:t=custos F	!	!	!	!	!	!	!	!	!	!	!
2G/	.	-rzy	2B-/	.	-rzy	2d/	.	-rzy	2g/	.	-rzy
*xywh-#6:2834,1612,1948,427	*	*	*	*	*	*	*	*	*	*	*
!LO:LB:g=original	!	!	!	!	!	!	!	!	!	!	!
2F/	.	zaw-	2c/	.	zaw-	2f\	.	zaw-	2a/	.	zaw-
!	!	!	!	!	!	!	!	!	!LO:SIC:v:t=custos b-	!	!
2B-\	.	-żdy	2d\	.	-żdy	2f\	.	-żdy	2b-/	.	-żdy
*	*	*	*	*	*	*	*	*	*xywh-#5:2759,1575,1854,408	*	*
!	!	!	!	!	!	!LO:SIC:v:t=custos e	!	!	!LO:LB:g=original	!	!
2G/	.	swój	2B-/	.	swój	2g\	.	swój	2b-/	.	swój
=13-	=13-	=13-	=13-	=13-	=13-	=13-	=13-	=13-	=13-	=13-	=13-
*	*	*	*	*	*	*xywh-#7:689,1661,2006,559	*	*	*	*	*
!	!	!	!	!	!	!LO:LB:g=original	!	!	!	!	!
2A/	.	ży-	2c/	.	ży-	2e/	.	ży-	2a/	.	ży-
2D/	.	-wot	2d\	.	-wot	2f\	.	-wot	2a/	.	-wot
1A	.	wio-	1e	.	wio-	1a	.	wio-	1cc	.	wio-
=14-	=14-	=14-	=14-	=14-	=14-	=14-	=14-	=14-	=14-	=14-	=14-
!	!	!	!LO:SIC:v:t=custos f	!	!	!	!	!	!	!	!
2c\	.	-dą	2c/	.	-dą	2e/	.	-dą	2a/	.	-dą
*	*	*	*xywh-#6:809,1591,1953,451	*	*	*	*	*	*	*	*
!	!	!	!LO:LB:g=original	!	!	!	!	!	!	!	!
4F/	.	w swa-	1f\	.	w swa-	2a\	.	w swa-	2.dd\	.	w swa-
4G/	.	.	.	.	.	.	.	.	.	.	.
4A/	.	.	.	.	.	2cc\	.	.	.	.	.
4B-/	.	.	.	.	.	.	.	.	4b-/	.	.
4c\	.	-wol-	2e\	.	-wol-	1cc\	.	-wol-	1a/	.	-wol-
4A\	.	.	.	.	.	.	.	.	.	.	.
=15-	=15-	=15-	=15-	=15-	=15-	=15-	=15-	=15-	=15-	=15-	=15-
1B-	.	-noś-	1d	.	-noś-	.	.	.	.	.	.
.	.	.	.	.	.	2b-\	.	-noś-	2g/	.	-noś-
1A	.	-ci,	1e	.	-ci,	1cc	.	-ci,	1a	.	-ci,
=16-	=16-	=16-	=16-	=16-	=16-	=16-	=16-	=16-	=16-	=16-	=16-
2.A/	.	a	1.e	.	a	1a	.	a	1.cc	.	a
4B-\	.	.	.	.	.	.	.	.	.	.	.
!LO:SIC:v:t=custos G	!	!	!	!	!	!	!	!	!	!	!
2c\	.	.	.	.	.	1g	.	im	.	.	.
*xywh-#6:2793,1928,2080,539	*	*	*	*	*	*	*	*	*	*	*
!LO:LB:g=original	!	!	!	!	!	!	!	!	!	!	!
2G/	.	im	2d\	.	im	.	.	.	2b-/	.	im
=17-	=17-	=17-	=17-	=17-	=17-	=17-	=17-	=17-	=17-	=17-	=17-
1d	.	da-	1f	.	da-	2f\	.	da-	1a	.	da-
.	.	.	.	.	.	2d/	.	.	.	.	.
2A/	.	-lej	2e\	.	-lej	2c/	.	-lej	2a/	.	-lej
2B-/	.	tym	2d\	.	tym	1d/	.	tym	1g/	.	tym
=18-	=18-	=18-	=18-	=18-	=18-	=18-	=18-	=18-	=18-	=18-	=18-
1c	.	wię-	1e	.	wię-	.	.	.	.	.	.
.	.	.	.	.	.	2c/	.	wię-	1cc\	.	wię-
1G	.	-cej	1d	.	-cej	1g	.	-cej	.	.	.
!	!	!	!	!	!	!	!	!	!LO:SIC:v:t=custos cc	!	!
!	!	!	!	!	!	!	!	!	!LO:SIC:s=2bn	!	!
.	.	.	.	.	.	.	.	.	2b-/	.	-cej
=19-	=19-	=19-	=19-	=19-	=19-	=19-	=19-	=19-	=19-	=19-	=19-
*	*	*	*	*	*	*	*	*	*xywh-#5:2771,1948,1860,414	*	*
!	!	!	!	!	!	!	!	!	!LO:LB:g=original	!	!
2F/	.	u-	2f\	.	u-	2a\	.	u-	2cc\	.	u-
!	!	!	!	!	!	!LO:SIC:v:t=custos g	!	!	!	!	!
2B-\	.	-pa-	2f\	.	-pa-	2b-\	.	-pa-	2dd\	.	-pa-
*	*	*	*	*	*	*xywh-#7:704,2201,2006,513	*	*	*	*	*
!	!	!	!	!	!	!LO:LB:g=original	!	!	!	!	!
2c\	.	-da-	2e\	.	-da-	2g\	.	-da-	2cc\	.	-da-
2F/	.	-ją	2c/	.	-ją	2a\	.	-ją	2a/	.	-ją
=20-	=20-	=20-	=20-	=20-	=20-	=20-	=20-	=20-	=20-	=20-	=20-
2B-\	.	w złoś-	1d	.	w złoś-	2f\	.	w złoś-	1b-	.	w złoś-
2G/	.	.	.	.	.	2g\	.	.	.	.	.
1A	.	-ci,	1c	.	-ci,	1e	.	-ci,	1a	.	-ci,
=21-	=21-	=21-	=21-	=21-	=21-	=21-	=21-	=21-	=21-	=21-	=21-
2r	.	.	2r	.	.	2r	.	.	2r	.	.
!	!	!	!LO:SIC:v:t=custos e	!	!	!	!	!	!	!	!
4D/	.	Ta-	1f\	.	Ta-	1a\	.	Ta-	1dd\	.	Ta-
4E/	.	.	.	.	.	.	.	.	.	.	.
4F/	.	.	.	.	.	.	.	.	.	.	.
!LO:SIC:v:t=custos A	!	!	!	!	!	!	!	!	!	!	!
4G/	.	.	.	.	.	.	.	.	.	.	.
*xywh-#6:2808,2404,2012,500	*	*	*xywh-#6:827,2004,1919,476	*	*	*	*	*	*	*	*
!LO:LB:g=original	!	!	!LO:LB:g=original	!	!	!	!	!	!	!	!
2A/	.	-ko-	2e\	.	-ko-	2a\	.	-ko-	2cc\	.	-ko-
=22-	=22-	=22-	=22-	=22-	=22-	=22-	=22-	=22-	=22-	=22-	=22-
2B-\	.	-wić	1d	.	-wić	2f\	.	-wić	1b-	.	-wić
2G/	.	.	.	.	.	2g\	.	prę-	.	.	.
2A/	.	prę-	2c/	.	prę-	2e/	.	-dko	2a/	.	prę-
1F/	.	-dko	1A/	.	-dko	1f\	.	zwięd-	1cc\	.	-dko
=23-	=23-	=23-	=23-	=23-	=23-	=23-	=23-	=23-	=23-	=23-	=23-
2G/	.	zwięd-	2B-/	.	zwięd-	2d/	.	-ną	2b-/	.	zwięd-
2A/	.	-ną	2c/	.	-ną	2f\	.	pra-	2a/	.	-ną
!	!	!	!LO:N:vis=4	!	!	!	!	!	!	!	!
2G/	.	pra-	2d\	.	pra-	1g\	.	-wie	2b-/	.	pra-
=24-	=24-	=24-	=24-	=24-	=24-	=24-	=24-	=24-	=24-	=24-	=24-
2c\	.	-wie	2e\	.	-wie	.	.	.	2cc\	.	-wie
1B-\	.	ja-	1f\	.	ja-	1b-\	.	ja-	1dd\	.	ja-
2c\	.	-ko	2e\	.	-ko	2g\	.	-ko	1cc\	.	-ko
=25-	=25-	=25-	=25-	=25-	=25-	=25-	=25-	=25-	=25-	=25-	=25-
1G	.	sia-	1d	.	sia-	1g	.	sia-	.	.	.
!	!	!	!	!	!	!	!	!	!LO:SIC:v:t=custos cc	!	!
!	!	!	!	!	!	!	!	!	!LO:SIC:s=2bn	!	!
.	.	.	.	.	.	.	.	.	2b-/	.	sia-
*	*	*	*	*	*	*	*	*	*xywh-#5:2757,2313,1842,816	*	*
!	!	!	!	!	!	!LO:SIC:v:t=custos f	!	!	!LO:LB:g=original	!	!
1C	.	-no,	1c	.	-no,	1e	.	-no,	1cc	.	-no,
=26-	=26-	=26-	=26-	=26-	=26-	=26-	=26-	=26-	=26-	=26-	=26-
*	*	*	*	*	*	*xywh-#7:687,2679,2012,542	*	*	*	*	*
!	!	!	!	!	!	!LO:LB:g=original	!	!	!	!	!
1.F	.	Któ-	1.c	.	Któ-	1.f	.	Któ-	1.a	.	Któ-
2A/	.	-re	2c/	.	-re	2e/	.	-re	2a/	.	-re
=27-	=27-	=27-	=27-	=27-	=27-	=27-	=27-	=27-	=27-	=27-	=27-
2G/	.	się	2d\	.	się	2g\	.	się	2b-/	.	się
2A/	.	więc	2c/	.	więc	2e/	.	więc	2cc\	.	więc
!LO:SIC:v:t=custos D	!	!	!	!	!	!	!	!	!	!	!
2D/	.	zie-	2d\	.	zie-	2f\	.	zie-	2a/	.	zie-
*xywh-#6:2817,2886,1987,578	*	*	*	*	*	*	*	*	*	*	*
!LO:LB:g=original	!	!	!LO:SIC:v:t=custos c	!	!	!	!	!	!	!	!
2D/	.	-le-	2d\	.	-le-	2f\	.	-le-	2b-/	.	-le-
=28-	=28-	=28-	=28-	=28-	=28-	=28-	=28-	=28-	=28-	=28-	=28-
*	*	*	*xywh-#6:851,2437,1914,753	*	*	*	*	*	*	*	*
!	!	!	!LO:LB:g=original	!	!	!	!	!	!	!	!
1A	.	-ni	1c	.	-ni	1e	.	-ni	1a	.	-ni
2r	.	.	2r	.	.	2r	.	.	2r	.	.
2F/	.	jed-	2c/	.	jed-	2f\	.	jed-	2a/	.	jed-
=29-	=29-	=29-	=29-	=29-	=29-	=29-	=29-	=29-	=29-	=29-	=29-
1D	.	-no	1d	.	-no	1f	.	-no	1b-	.	-no
1C	.	tro-	1e	.	tro-	1g	.	tro-	1cc	.	tro-
=30-	=30-	=30-	=30-	=30-	=30-	=30-	=30-	=30-	=30-	=30-	=30-
1D	.	-chę	1.f	.	-chę	1d	.	-chę	2a/	.	.
.	.	.	.	.	.	.	.	.	1dd\	.	-chę
1D	.	ra-	.	.	.	1a	.	ra-	.	.	.
!	!	!	!	!	!	!	!	!	!LO:SIC:s=4cc#	!	!
.	.	.	4e\	.	ra-	.	.	.	4cc\	.	ra-
!	!	!	!	!	!	!	!	!	!LO:SIC:s=4bn	!	!
.	.	.	4d\	.	.	.	.	.	4b-/	.	.
=31-	=31-	=31-	=31-	=31-	=31-	=31-	=31-	=31-	=31-	=31-	=31-
!	!	!	!	!	!	!	!	!	!LO:TX:t=P:problem:# below	!	!
0Al/	.	-no.	0el	.	-no.	0al	.	-no.	0cc#l	.	-no.
==	==	==	==	==	==	==	==	==	==	==	==
*-	*-	*-	*-	*-	*-	*-	*-	*-	*-	*-	*-
!!!system-decoration: [(s1,s2,s3,s4)]
!!!RDF**kern: l = terminal
!!!filter-modern: sic -sq | tie -si |  autostem -r | shed -e "s/-//B" | shed -e "s/TX(.*):t=P:/tx$1:t=P:/LG" | modori -m
!!!ENC: Marta Opryszak
!!!END: 2022-05-17
!!!ENC: Krzysztof Stępień
!!!END: 2022-05-17
!!!ENC-modern: Leszek Kubiak
!!!END-modern: 2022-07-25
!!!ENC-iiif: Emilia Ziętek
!!!END-iiif: 2022-09-03
!!!YEC: Copyright 2022 Narodowy Instytut Fryderyka Chopina (https://polishscores.org)
!!!YEM: License CC-BY-4.0 (https://creativecommons.org/licenses/by/4.0)
